sources/design/Outline/grave.svg

<svg:svg xmlns:cc="http://creativecommons.org/ns#" xmlns:dc="http://purl.org/dc/elements/1.1/" xmlns:inkscape="http://www.inkscape.org/namespaces/inkscape" xmlns:rdf="http://www.w3.org/1999/02/22-rdf-syntax-ns#" xmlns:sodipodi="http://sodipodi.sourceforge.net/DTD/sodipodi-0.dtd" xmlns:svg="http://www.w3.org/2000/svg" xml:space="preserve" width="1000" height="1000" version="1.1" style="clip-rule:evenodd;fill-rule:evenodd;image-rendering:optimizeQuality;shape-rendering:geometricPrecision;text-rendering:geometricPrecision" viewBox="0 0 1000 1000" id="svg10" sodipodi:docname="grave.svg" inkscape:version="1.1.1 (3bf5ae0d25, 2021-09-20)"><svg:text text-anchor="middle" x="200.16336" y="103.45739" id="top" inkscape:label="top">✛</svg:text><svg:metadata id="metadata14"><rdf:RDF><cc:Work rdf:about=""><dc:format>image/svg+xml</dc:format><dc:type rdf:resource="http://purl.org/dc/dcmitype/StillImage" /><dc:title /></cc:Work></rdf:RDF></svg:metadata><sodipodi:namedview pagecolor="#ffffff" bordercolor="#666666" borderopacity="1" objecttolerance="10" gridtolerance="10" guidetolerance="10" inkscape:pageopacity="0" inkscape:pageshadow="2" inkscape:window-width="1920" inkscape:window-height="1009" id="namedview12" showgrid="false" inkscape:zoom="1.9176736" inkscape:cx="-52.40725" inkscape:cy="166.86886" inkscape:window-x="0" inkscape:window-y="60" inkscape:window-maximized="1" inkscape:current-layer="svg10" showguides="true" inkscape:guide-bbox="true" inkscape:document-rotation="0" inkscape:snap-to-guides="true" inkscape:pagecheckerboard="0"><sodipodi:guide position="0,1000" orientation="0,1" id="guide16" inkscape:label="" inkscape:locked="true" inkscape:color="rgb(0,0,255)" /><sodipodi:guide position="1763.3122,2036.1693" orientation="1000,0" id="guide18" /><sodipodi:guide position="0,200" orientation="0,1" id="guide20" inkscape:label="base" inkscape:locked="true" inkscape:color="rgb(0,0,255)" /><inkscape:grid type="xygrid" id="grid24" originx="-473.37552" originy="-489.69235" /><sodipodi:guide position="0,0" orientation="0,1" id="guide34" inkscape:label="bottom" inkscape:locked="true" inkscape:color="rgb(0,0,255)" /><sodipodi:guide position="225.05109,1693.3186" orientation="0,1" id="guide44" inkscape:label="" inkscape:locked="false" inkscape:color="rgb(0,0,255)" /><sodipodi:guide position="0,900" orientation="0,1" id="guide46" inkscape:label="" inkscape:locked="true" inkscape:color="rgb(0,0,255)" /><sodipodi:guide position="0,1000" orientation="0,1000" id="guide860" /><sodipodi:guide position="1000,1000" orientation="1000,0" id="guide862" /><sodipodi:guide position="1000,0" orientation="0,-1000" id="guide864" /><sodipodi:guide position="0,0" orientation="-1000,0" id="guide866" /><sodipodi:guide position="239.72983,1007.6402" orientation="-1,0" id="guide861" inkscape:label="width" inkscape:locked="false" inkscape:color="rgb(0,0,255)" /></sodipodi:namedview>
 <svg:defs id="defs4"><inkscape:path-effect effect="fillet_chamfer" id="path-effect861" is_visible="true" lpeversion="1" satellites_param="F,0,0,1,0,15.924213,0,1 @ F,0,0,1,0,15.950897,0,1 @ F,0,0,1,0,0,0,1 @ F,0,0,1,0,13.019511,0,1 @ F,0,0,1,0,14.104581,0,1 @ F,0,0,1,0,0,0,1" unit="px" method="auto" mode="F" radius="0" chamfer_steps="1" flexible="false" use_knot_distance="true" apply_no_radius="true" apply_with_radius="true" only_selected="true" hide_knots="false" /><inkscape:path-effect effect="spiro" id="path-effect864" is_visible="true" lpeversion="1" /><inkscape:path-effect effect="spiro" id="path-effect863" is_visible="true" lpeversion="1" /><inkscape:path-effect effect="spiro" id="path-effect873" is_visible="true" lpeversion="1" /><inkscape:path-effect effect="spiro" id="path-effect859" is_visible="true" lpeversion="1" /><inkscape:path-effect effect="spiro" id="path-effect862" is_visible="true" lpeversion="1" /><inkscape:path-effect effect="spiro" id="path-effect1521" is_visible="true" lpeversion="1" /><inkscape:path-effect effect="spiro" id="path-effect858" is_visible="true" lpeversion="1" /><inkscape:path-effect effect="spiro" id="path-effect854" is_visible="true" lpeversion="1" />
  <svg:style type="text/css" id="style2">
   
    .fil0 {fill:#EF7F1A;fill-rule:nonzero}
   
  </svg:style>
 <inkscape:path-effect effect="spiro" id="path-effect1214" is_visible="true" lpeversion="1" /><inkscape:path-effect effect="spiro" id="path-effect1195" is_visible="true" lpeversion="1" /><inkscape:path-effect effect="spiro" id="path-effect992" is_visible="true" lpeversion="1" /><inkscape:path-effect effect="spiro" id="path-effect287" is_visible="true" lpeversion="1" /><inkscape:path-effect effect="spiro" id="path-effect1032" is_visible="true" lpeversion="1" /><inkscape:path-effect effect="spiro" id="path-effect1218" is_visible="true" lpeversion="1" /><inkscape:path-effect effect="spiro" id="path-effect309" is_visible="true" lpeversion="1" /><inkscape:path-effect effect="spiro" id="path-effect1176" is_visible="true" lpeversion="1" /><inkscape:path-effect effect="spiro" id="path-effect1026" is_visible="true" lpeversion="1" /><inkscape:path-effect effect="spiro" id="path-effect1030" is_visible="true" lpeversion="1" /></svg:defs>
 
<svg:g id="path861"><svg:path style="color:#000000;clip-rule:nonzero;fill:#1a5fb4;fill-rule:nonzero;stroke-linecap:round;stroke-linejoin:round;-inkscape-stroke:none;paint-order:fill stroke markers;shape-rendering:auto" d="M 125.25195,-199.12891 C 120.38844999999999,-199.14851 115.61417,-198.39106999999998 111.28905999999999,-196.94335999999998 L 2.0117188,-160.36523 C -21.682029,-152.43439 -35.351641,-127.10485 -27.720703,-102.64844 C -12.275588,-53.14833999999999 10.839466000000002,-6.110795799999991 40.636719,36.347656 C 61.273849,65.753743 85.06285199999999,92.91072 111.48047,117.24609 C 128.16868,132.61894 145.08523,135.45122 165.69922,128.08398 L 242.51562,100.63086 C 252.69171,96.994028 264.5603,87.316335 267.65430000000003,72.978516 C 270.74829000000005,58.640696 264.2221,45.436458 256.78711000000004,37.865234 C 229.90561000000005,10.491185000000002 207.96902000000006,-21.876751999999996 192.55078000000003,-56.984375 C 178.26975000000004,-89.502571 169.49582000000004,-124.54147 166.72266000000002,-159.97266000000002 C 165.79790000000003,-171.78778000000003 159.74642000000003,-184.54412000000002 148.64844000000002,-192.15039000000002 C 141.71220000000002,-196.90431 133.35780000000003,-199.09631000000002 125.25195000000002,-199.12891000000002 L 125.25195,-199.12891 M 109.39452999999999,-133.03710999999998 C 114.16279999999999,-98.56137599999998 123.60419999999999,-64.76277599999999 137.61523,-32.859374999999986 C 151.51236,-1.2153556999999857 169.77951,28.413873000000017 191.69335999999998,55.078125000000014 L 149.46875,70.16796900000001 C 149.71096,70.406737 149.84428,71.00903400000001 152.13281,73.11718700000002 C 151.12985,72.19327900000002 150.19362,71.19884400000002 149.19922,70.26562500000001 L 145.50781,71.58398400000002 C 147.99496000000002,70.69510200000002 148.53801,70.09613500000002 148.83594,69.91210900000002 C 126.91974,49.297054 107.02953,26.50266 89.75,1.8808594 C 66.124105,-31.783954 47.27141,-68.85028 33.818359,-107.74023 L 109.39452999999999,-133.03710999999998" id="path4251" /></svg:g></svg:svg>

<svg:svg xmlns:cc="http://creativecommons.org/ns#" xmlns:dc="http://purl.org/dc/elements/1.1/" xmlns:inkscape="http://www.inkscape.org/namespaces/inkscape" xmlns:rdf="http://www.w3.org/1999/02/22-rdf-syntax-ns#" xmlns:sodipodi="http://sodipodi.sourceforge.net/DTD/sodipodi-0.dtd" xmlns:svg="http://www.w3.org/2000/svg" xml:space="preserve" width="1000" height="1000" version="1.1" style="clip-rule:evenodd;fill-rule:evenodd;image-rendering:optimizeQuality;shape-rendering:geometricPrecision;text-rendering:geometricPrecision" viewBox="0 0 1000 1000" id="svg10" sodipodi:docname="grave.svg" inkscape:version="1.1.1 (3bf5ae0d25, 2021-09-20)"><svg:text text-anchor="middle" x="200.16336" y="103.45739" id="top" inkscape:label="top">✛</svg:text><svg:metadata id="metadata14"><rdf:RDF><cc:Work rdf:about=""><dc:format>image/svg+xml</dc:format><dc:type rdf:resource="http://purl.org/dc/dcmitype/StillImage" /><dc:title /></cc:Work></rdf:RDF></svg:metadata><sodipodi:namedview pagecolor="#ffffff" bordercolor="#666666" borderopacity="1" objecttolerance="10" gridtolerance="10" guidetolerance="10" inkscape:pageopacity="0" inkscape:pageshadow="2" inkscape:window-width="1920" inkscape:window-height="1009" id="namedview12" showgrid="false" inkscape:zoom="1.9176736" inkscape:cx="-52.40725" inkscape:cy="166.86886" inkscape:window-x="0" inkscape:window-y="60" inkscape:window-maximized="1" inkscape:current-layer="svg10" showguides="true" inkscape:guide-bbox="true" inkscape:document-rotation="0" inkscape:snap-to-guides="true" inkscape:pagecheckerboard="0"><sodipodi:guide position="0,1000" orientation="0,1" id="guide16" inkscape:label="" inkscape:locked="true" inkscape:color="rgb(0,0,255)" /><sodipodi:guide position="1763.3122,2036.1693" orientation="1000,0" id="guide18" /><sodipodi:guide position="0,200" orientation="0,1" id="guide20" inkscape:label="base" inkscape:locked="true" inkscape:color="rgb(0,0,255)" /><inkscape:grid type="xygrid" id="grid24" originx="-473.37552" originy="-489.69235" /><sodipodi:guide position="0,0" orientation="0,1" id="guide34" inkscape:label="bottom" inkscape:locked="true" inkscape:color="rgb(0,0,255)" /><sodipodi:guide position="225.05109,1693.3186" orientation="0,1" id="guide44" inkscape:label="" inkscape:locked="false" inkscape:color="rgb(0,0,255)" /><sodipodi:guide position="0,900" orientation="0,1" id="guide46" inkscape:label="" inkscape:locked="true" inkscape:color="rgb(0,0,255)" /><sodipodi:guide position="0,1000" orientation="0,1000" id="guide860" /><sodipodi:guide position="1000,1000" orientation="1000,0" id="guide862" /><sodipodi:guide position="1000,0" orientation="0,-1000" id="guide864" /><sodipodi:guide position="0,0" orientation="-1000,0" id="guide866" /><sodipodi:guide position="239.72983,1007.6402" orientation="-1,0" id="guide861" inkscape:label="width" inkscape:locked="false" inkscape:color="rgb(0,0,255)" /></sodipodi:namedview>
 <svg:defs id="defs4"><inkscape:path-effect effect="fillet_chamfer" id="path-effect861" is_visible="true" lpeversion="1" satellites_param="F,0,0,1,0,15.924213,0,1 @ F,0,0,1,0,15.950897,0,1 @ F,0,0,1,0,0,0,1 @ F,0,0,1,0,13.019511,0,1 @ F,0,0,1,0,14.104581,0,1 @ F,0,0,1,0,0,0,1" unit="px" method="auto" mode="F" radius="0" chamfer_steps="1" flexible="false" use_knot_distance="true" apply_no_radius="true" apply_with_radius="true" only_selected="true" hide_knots="false" /><inkscape:path-effect effect="spiro" id="path-effect864" is_visible="true" lpeversion="1" /><inkscape:path-effect effect="spiro" id="path-effect863" is_visible="true" lpeversion="1" /><inkscape:path-effect effect="spiro" id="path-effect873" is_visible="true" lpeversion="1" /><inkscape:path-effect effect="spiro" id="path-effect859" is_visible="true" lpeversion="1" /><inkscape:path-effect effect="spiro" id="path-effect862" is_visible="true" lpeversion="1" /><inkscape:path-effect effect="spiro" id="path-effect1521" is_visible="true" lpeversion="1" /><inkscape:path-effect effect="spiro" id="path-effect858" is_visible="true" lpeversion="1" /><inkscape:path-effect effect="spiro" id="path-effect854" is_visible="true" lpeversion="1" />
  <svg:style type="text/css" id="style2">
   
    .fil0 {fill:#EF7F1A;fill-rule:nonzero}
   
  </svg:style>
 <inkscape:path-effect effect="spiro" id="path-effect1214" is_visible="true" lpeversion="1" /><inkscape:path-effect effect="spiro" id="path-effect1195" is_visible="true" lpeversion="1" /><inkscape:path-effect effect="spiro" id="path-effect992" is_visible="true" lpeversion="1" /><inkscape:path-effect effect="spiro" id="path-effect287" is_visible="true" lpeversion="1" /><inkscape:path-effect effect="spiro" id="path-effect1032" is_visible="true" lpeversion="1" /><inkscape:path-effect effect="spiro" id="path-effect1218" is_visible="true" lpeversion="1" /><inkscape:path-effect effect="spiro" id="path-effect309" is_visible="true" lpeversion="1" /><inkscape:path-effect effect="spiro" id="path-effect1176" is_visible="true" lpeversion="1" /><inkscape:path-effect effect="spiro" id="path-effect1026" is_visible="true" lpeversion="1" /><inkscape:path-effect effect="spiro" id="path-effect1030" is_visible="true" lpeversion="1" /></svg:defs>
 
<svg:g id="path861"><svg:path style="color:#000000;clip-rule:nonzero;fill:#1a5fb4;fill-rule:nonzero;stroke-linecap:round;stroke-linejoin:round;-inkscape-stroke:none;shape-rendering:auto" d="m 125.25195,-199.12891 c -4.8635,-0.0196 -9.63778,0.73784 -13.96289,2.18555 L 2.0117188,-160.36523 c -23.6937478,7.93084 -37.3633598,33.26038 -29.7324218,57.71679 15.445115,49.5001 38.560169,96.5376442 68.357422,138.996096 20.63713,29.406087 44.426133,56.563064 70.843751,80.898434 16.68821,15.37285 33.60476,18.20513 54.21875,10.83789 l 76.8164,-27.45312 c 10.17609,-3.636832 22.04468,-13.314525 25.13868,-27.652344 3.09399,-14.33782 -3.4322,-27.542058 -10.86719,-35.113282 -26.8815,-27.374049 -48.81809,-59.741986 -64.23633,-94.849609 -14.28103,-32.518196 -23.05496,-67.557095 -25.82812,-102.988285 -0.92476,-11.81512 -6.97624,-24.57146 -18.07422,-32.17773 -6.93624,-4.75392 -15.29064,-6.94592 -23.39649,-6.97852 z m -15.85742,66.0918 c 4.76827,34.475734 14.20967,68.274334 28.2207,100.177735 13.89713,31.6440193 32.16428,61.273248 54.07813,87.9375 l -42.22461,15.089844 c 0.24221,0.238768 0.37553,0.841065 2.66406,2.949218 -1.00296,-0.923908 -1.93919,-1.918343 -2.93359,-2.851562 l -3.69141,1.318359 c 2.48715,-0.888882 3.0302,-1.487849 3.32813,-1.671875 C 126.91974,49.297054 107.02953,26.50266 89.75,1.8808594 66.124105,-31.783954 47.27141,-68.85028 33.818359,-107.74023 Z" id="path4241" /></svg:g></svg:svg>
